;FLAVOR:Marlin
;TIME:524
;Filament used: 0.225434m
;Layer height: 0.2
;MINX:69.138
;MINY:67.95
;MINZ:0.2
;MAXX:160.861
;MAXY:142.053
;MAXZ:0.2
;Generated with Cura_SteamEngine 4.4.1
M140 S60
M105
M190 S60
M104 S200
M105
M109 S200
M82 ;absolute extrusion mode
M201 X500.00 Y500.00 Z100.00 E5000.00 ;Setup machine max acceleration
M203 X500.00 Y500.00 Z10.00 E50.00 ;Setup machine max feedrate
M204 P500.00 R1000.00 T500.00 ;Setup Print/Retract/Travel acceleration
M205 X8.00 Y8.00 Z0.40 E5.00 ;Setup Jerk
M220 S100 ;Reset Feedrate
M221 S100 ;Reset Flowrate

G28 ;Home All Axes
G29 ;Bed Levelling

G92 E0 ;Reset Extruder
G1 Z2.0 F3000 ;Move Z Axis up
G1 X10.1 Y20 Z0.28 F5000.0 ;Move to start position
G1 X10.1 Y200.0 Z0.28 F1500.0 E15 ;Draw the first line
G1 X10.4 Y200.0 Z0.28 F5000.0 ;Move to side a little
G1 X10.4 Y20 Z0.28 F1500.0 E30 ;Draw the second line
G92 E0 ;Reset Extruder
G1 Z2.0 F3000 ;Move Z Axis up
G92 E0
G92 E0
G1 F1500 E-6.5
;LAYER_COUNT:1
;LAYER:0
M107
;MESH:Trollface.svg_1mm.stl
G0 F6000 X128.571 Y139.046 Z0.2
;TYPE:WALL-INNER
G1 F1500 E0
G1 F1200 X133.633 Y139.965 E0.20534
G1 X138.596 Y140.36 E0.40405
G1 X142.087 Y140.322 E0.54339
G1 X142.681 Y140.261 E0.56722
G1 X143.831 Y140.149 E0.61334
G1 X145.586 Y139.942 E0.68387
G1 X147.37 Y139.626 E0.75618
G1 X148.887 Y139.19 E0.81918
G1 X150.043 Y138.735 E0.86876
G1 X150.99 Y138.31 E0.91019
G1 X152.593 Y137.312 E0.98556
G1 X154.192 Y135.721 E1.07559
G1 X155.238 Y133.743 E1.16489
G1 X155.699 Y131.952 E1.2387
G1 X155.804 Y131.044 E1.27519
G1 X155.776 Y129.019 E1.35602
G1 X155.491 Y126.188 E1.46958
G1 X155.241 Y124.324 E1.54464
G1 X154.821 Y120.774 E1.68732
G1 X154.49 Y117.16 E1.83216
G1 X154.353 Y114.05 E1.95641
G1 X154.352 Y111.748 E2.04829
G1 X154.396 Y110.168 E2.11137
G1 X154.56 Y107.784 E2.20675
G1 X154.942 Y105.489 E2.29961
G1 X155.586 Y103.743 E2.37388
G1 X156.299 Y102.551 E2.42932
G1 X156.83 Y101.855 E2.46426
G1 X157.553 Y100.826 E2.51445
G1 X158.258 Y99.619 E2.57024
G1 X158.75 Y98.436 E2.62138
G1 X159.023 Y97.483 E2.66095
G1 X159.216 Y96.574 E2.69804
G1 X159.319 Y94.773 E2.77004
G1 X158.857 Y92.569 E2.85991
G1 X157.639 Y90.351 E2.96091
G1 X156.151 Y88.48 E3.05632
G1 X155.222 Y87.472 E3.11103
G1 X154.096 Y86.137 E3.18074
G1 X153.123 Y84.722 E3.24928
G1 X152.613 Y83.542 E3.30058
G1 X152.464 Y82.737 E3.33326
G1 X152.464 Y82.094 E3.35892
G1 X152.358 Y80.93 E3.40557
G1 X151.999 Y79.585 E3.46113
G1 X151.352 Y78.381 E3.51569
G1 X150.649 Y77.508 E3.56042
G1 X149.847 Y76.707 E3.60566
G1 X148.036 Y75.369 E3.69553
G1 X145.091 Y73.705 E3.83054
G1 X141.847 Y72.372 E3.97052
G1 X139.438 Y71.667 E4.0707
G1 X138.333 Y71.473 E4.11548
G1 X137.513 Y71.383 E4.1484
G1 X136.289 Y71.346 E4.19728
G1 X134.778 Y71.401 E4.25762
G1 X133 Y71.528 E4.32877
G1 X132.733 Y71.547 E4.33945
G1 X132.792 Y71.286 E4.34584
G1 X132.826 Y71.135 E4.35202
G1 X132.148 Y70.666 E4.38492
G1 X130.36 Y70.409 E4.45702
G1 X127.612 Y70.119 E4.56731
G1 X124.088 Y69.804 E4.70852
G1 X120.093 Y69.487 E4.86847
G1 X115.934 Y69.194 E5.03487
G1 X111.922 Y68.953 E5.19529
G1 X109.254 Y68.818 E5.30191
G1 X107.534 Y68.755 E5.37061
G1 X105.056 Y68.751 E5.46951
G1 X104.704 Y68.757 E5.48356
G1 X100.952 Y68.825 E5.63334
G1 X96.981 Y68.98 E5.79195
G1 X94.758 Y69.112 E5.88083
G1 X93.587 Y69.238 E5.92784
G1 X92.151 Y69.484 E5.98598
G1 X90.455 Y69.981 E6.05652
G1 X88.926 Y70.742 E6.12469
G1 X87.532 Y71.813 E6.19485
G1 X86.233 Y73.226 E6.27146
G1 X84.97 Y75.018 E6.35896
G1 X83.681 Y77.238 E6.46142
G1 X82.63 Y79.262 E6.55244
G1 X82.082 Y80.383 E6.60224
G1 X81.428 Y81.697 E6.66082
G1 X80.62 Y83.286 E6.73197
G1 X79.968 Y84.531 E6.78806
G1 X79.656 Y85.105 E6.81414
G1 X78.748 Y86.543 E6.88202
G1 X78.904 Y86.815 E6.89453
G1 X79.016 Y87.01 E6.90351
G1 X78.809 Y87.097 E6.90911
G1 X78.601 Y87.185 E6.91812
G1 X76.15 Y88.225 E7.02439
G1 X73.432 Y90.318 E7.16131
G1 X71.865 Y92.264 E7.26103
G1 X71.391 Y93.24 E7.30433
G1 X71.089 Y93.937 E7.33465
G1 X70.842 Y94.806 E7.37071
G1 X70.727 Y95.806 E7.41088
G1 X70.699 Y96.809 E7.45093
G1 X70.699 Y97.473 E7.47743
G1 X70.725 Y98.478 E7.51756
G1 X70.837 Y99.483 E7.55792
G1 X71.079 Y100.344 E7.59361
G1 X71.368 Y101.022 E7.62303
G1 X71.671 Y101.642 E7.65057
G1 X72.404 Y102.726 E7.7028
G1 X73.659 Y104.19 E7.77976
G1 X75.134 Y105.55 E7.85984
G1 X76.304 Y106.438 E7.91846
G1 X76.952 Y106.838 E7.94886
G1 X77.425 Y107.157 E7.97163
G1 X77.524 Y107.224 E7.9764
G1 X77.29 Y107.358 E7.98243
G1 X77.472 Y108.109 E8.01328
G1 X77.82 Y108.58 E8.03665
G1 X78.456 Y109.254 E8.07364
G1 X78.85 Y109.735 E8.09845
G1 X79.272 Y110.408 E8.13016
G1 X79.651 Y111.271 E8.16778
G1 X79.661 Y111.292 E8.1687
G1 X79.994 Y112.243 E8.20892
G1 X80.094 Y112.564 E8.22234
G1 X80.272 Y113.101 E8.24492
G1 X80.882 Y114.664 E8.31188
G1 X81.78 Y116.405 E8.39007
G1 X82.906 Y117.974 E8.46715
G1 X83.988 Y119.176 E8.5317
G1 X84.671 Y119.851 E8.57002
G1 X85.604 Y120.684 E8.61994
G1 X86.981 Y121.778 E8.69014
G1 X88.565 Y122.877 E8.76708
G1 X90.405 Y124.012 E8.85337
G1 X92.561 Y125.215 E8.95191
G1 X95.086 Y126.526 E9.06546
G1 X98.039 Y127.973 E9.19671
G1 X101.993 Y129.835 E9.37115
G1 X103.564 Y130.59 E9.44072
G1 X105.749 Y131.677 E9.53812
G1 X107.774 Y132.732 E9.62925
G1 X108.966 Y133.383 E9.68346
G1 X110.02 Y133.997 E9.73215
G1 X112.039 Y135.088 E9.82374
G1 X114.057 Y135.963 E9.91153
G1 X115.87 Y136.377 E9.98575
G1 X117.391 Y136.477 E10.04659
G1 X118.224 Y136.473 E10.07984
G1 X119.218 Y136.495 E10.11952
G1 X120.326 Y136.635 E10.16409
G1 X121.647 Y136.981 E10.2186
G1 X123.626 Y137.637 E10.30181
G1 X124.845 Y138.052 E10.3532
G1 X128.571 Y139.046 E10.50712
G0 F6000 X128.658 Y138.655
;TYPE:WALL-OUTER
G1 F1200 X133.685 Y139.568 E10.71104
G1 X138.61 Y139.96 E10.90823
G1 X142.064 Y139.922 E11.04609
G1 X142.64 Y139.863 E11.0692
G1 X143.788 Y139.751 E11.11524
G1 X145.528 Y139.546 E11.18517
G1 X147.28 Y139.236 E11.25618
G1 X148.758 Y138.811 E11.31756
G1 X149.888 Y138.366 E11.36603
G1 X150.802 Y137.956 E11.40601
G1 X152.343 Y136.996 E11.47848
G1 X153.867 Y135.48 E11.56427
G1 X154.862 Y133.598 E11.64924
G1 X155.305 Y131.879 E11.72009
G1 X155.404 Y131.024 E11.75444
G1 X155.376 Y129.042 E11.83355
G1 X155.094 Y126.235 E11.94615
G1 X154.845 Y124.377 E12.02097
G1 X154.424 Y120.821 E12.16389
G1 X154.09 Y117.178 E12.3099
G1 X153.953 Y114.068 E12.43415
G1 X153.952 Y111.737 E12.52718
G1 X153.996 Y110.157 E12.59027
G1 X154.163 Y107.732 E12.68729
G1 X154.552 Y105.391 E12.782
G1 X155.224 Y103.57 E12.85947
G1 X155.97 Y102.322 E12.9175
G1 X156.507 Y101.619 E12.95281
G1 X157.216 Y100.61 E13.00203
G1 X157.899 Y99.44 E13.0561
G1 X158.372 Y98.304 E13.10521
G1 X158.635 Y97.386 E13.14333
G1 X158.818 Y96.521 E13.17862
G1 X158.917 Y94.803 E13.2473
G1 X158.478 Y92.709 E13.33269
G1 X157.305 Y90.573 E13.42995
G1 X155.847 Y88.74 E13.52343
G1 X154.916 Y87.73 E13.57826
G1 X153.775 Y86.378 E13.64887
G1 X152.773 Y84.92 E13.71948
G1 X152.228 Y83.66 E13.77427
G1 X152.064 Y82.772 E13.81031
G1 X152.064 Y82.112 E13.83665
G1 X151.963 Y81 E13.88122
G1 X151.625 Y79.733 E13.93355
G1 X151.017 Y78.603 E13.98477
G1 X150.351 Y77.776 E14.02715
G1 X149.585 Y77.011 E14.07036
G1 X147.818 Y75.705 E14.15805
G1 X144.916 Y74.066 E14.29108
G1 X141.714 Y72.75 E14.42925
G1 X139.347 Y72.057 E14.52769
G1 X138.276 Y71.869 E14.57108
G1 X137.485 Y71.782 E14.60285
G1 X136.29 Y71.746 E14.65056
G1 X134.799 Y71.8 E14.71011
G1 X132.852 Y71.939 E14.78802
G1 X131.866 Y72.023 E14.82751
G1 X128.889 Y72.199 E14.94654
G1 X125.517 Y72.222 E15.08113
G1 X122.282 Y71.998 E15.21055
G1 X119.682 Y71.659 E15.3152
G1 X118.047 Y71.39 E15.38133
G1 X114.66 Y70.97 E15.51755
G1 X111.907 Y70.801 E15.62764
G1 X110.464 Y70.8 E15.68523
G1 X108.892 Y70.851 E15.74801
G1 X106.965 Y71.044 E15.8253
G1 X105.124 Y71.407 E15.90019
G1 X103.299 Y71.97 E15.97642
G1 X101.411 Y72.76 E16.05811
G1 X99.385 Y73.802 E16.14904
G1 X97.143 Y75.125 E16.25294
G1 X95.234 Y76.343 E16.34332
G1 X94.23 Y77.004 E16.39129
G1 X93.099 Y77.737 E16.44509
G1 X91.874 Y78.512 E16.50294
G1 X90.939 Y79.075 E16.5465
G1 X90.642 Y79.238 E16.56002
G1 X90.775 Y79.113 E16.56731
G1 X91.532 Y78.428 E16.60806
G1 X93.965 Y76.547 E16.7308
G1 X97.533 Y74.199 E16.90127
G1 X101.07 Y72.314 E17.06124
G1 X103.373 Y71.355 E17.16081
G1 X104.81 Y70.962 E17.22027
G1 X106.83 Y70.698 E17.30158
G1 X110.457 Y70.539 E17.44648
G1 X114.755 Y70.678 E17.61811
G1 X118.281 Y70.975 E17.75934
G1 X120.451 Y71.241 E17.8466
G1 X123.44 Y71.526 E17.96643
G1 X127.04 Y71.746 E18.11039
G1 X130.028 Y71.772 E18.22965
G1 X131.651 Y71.686 E18.29452
G1 X132.318 Y71.574 E18.32151
G1 X132.377 Y71.311 E18.33227
G1 X131.998 Y71.049 E18.35066
G1 X130.31 Y70.806 E18.41872
G1 X127.573 Y70.517 E18.52857
G1 X124.054 Y70.203 E18.66958
G1 X120.063 Y69.886 E18.82937
G1 X115.908 Y69.593 E18.99562
G1 X111.9 Y69.352 E19.15587
G1 X109.237 Y69.218 E19.26229
G1 X107.526 Y69.155 E19.33063
G1 X105.059 Y69.151 E19.42909
G1 X100.963 Y69.225 E19.5926
G1 X97.001 Y69.38 E19.75085
G1 X94.791 Y69.511 E19.83921
G1 X93.642 Y69.634 E19.88534
G1 X92.241 Y69.874 E19.94207
G1 X90.602 Y70.355 E20.01024
G1 X89.139 Y71.083 E20.07546
G1 X87.803 Y72.109 E20.1427
G1 X86.545 Y73.478 E20.2169
G1 X85.307 Y75.234 E20.30265
G1 X84.032 Y77.431 E20.40404
G1 X82.987 Y79.442 E20.49449
G1 X82.44 Y80.561 E20.5442
G1 X81.785 Y81.878 E20.60291
G1 X80.974 Y83.472 E20.67429
G1 X80.319 Y84.722 E20.73061
G1 X79.994 Y85.319 E20.75774
G1 X79.215 Y86.553 E20.81599
G1 X79.335 Y86.762 E20.82561
G1 X81.94 Y86.67 E20.92964
G1 X82.631 Y86.663 E20.95722
G1 X83.39 Y86.693 E20.98754
G1 X83.629 Y86.723 E20.99716
G1 X83.201 Y86.756 E21.01429
G1 X82.058 Y86.756 E21.05991
G1 X79.508 Y87.236 E21.16347
G1 X76.353 Y88.573 E21.30023
G1 X73.714 Y90.606 E21.43319
G1 X72.205 Y92.48 E21.52922
G1 X71.755 Y93.407 E21.57035
G1 X71.467 Y94.072 E21.59927
G1 X71.236 Y94.884 E21.63297
G1 X71.126 Y95.835 E21.67118
G1 X71.099 Y96.815 E21.71031
G1 X71.099 Y97.468 E21.73637
G1 X71.124 Y98.451 E21.77562
G1 X71.231 Y99.406 E21.81397
G1 X71.457 Y100.211 E21.84734
G1 X71.732 Y100.856 E21.87533
G1 X72.018 Y101.441 E21.90132
G1 X72.723 Y102.483 E21.95153
G1 X73.947 Y103.912 E22.02663
G1 X75.391 Y105.243 E22.10501
G1 X76.531 Y106.108 E22.16212
G1 X77.17 Y106.503 E22.19211
G1 X77.86 Y106.969 E22.22534
G1 X78.292 Y107.353 E22.24841
G1 X78.294 Y107.365 E22.24889
G1 X78.198 Y107.392 E22.25287
G1 X78.037 Y107.392 E22.2593
G1 X77.75 Y107.556 E22.27249
G1 X77.842 Y107.936 E22.2881
G1 X78.128 Y108.323 E22.3073
G1 X78.759 Y108.993 E22.34404
G1 X79.175 Y109.5 E22.37021
G1 X79.626 Y110.22 E22.40412
G1 X80.036 Y111.151 E22.44472
G1 X80.372 Y112.111 E22.48532
G1 X80.475 Y112.442 E22.49915
G1 X80.648 Y112.965 E22.52114
G1 X81.247 Y114.499 E22.58687
G1 X82.122 Y116.196 E22.66307
G1 X83.218 Y117.723 E22.73809
G1 X84.277 Y118.9 E22.80128
G1 X84.945 Y119.559 E22.83873
G1 X85.862 Y120.378 E22.88781
G1 X87.22 Y121.457 E22.95703
G1 X88.784 Y122.542 E23.03301
G1 X90.608 Y123.667 E23.11854
G1 X92.751 Y124.863 E23.21649
G1 X95.266 Y126.169 E23.3296
G1 X98.212 Y127.612 E23.46052
G1 X102.166 Y129.474 E23.63496
G1 X103.737 Y130.229 E23.70453
G1 X105.934 Y131.322 E23.80247
G1 X107.959 Y132.377 E23.8936
G1 X109.167 Y133.037 E23.94854
G1 X110.216 Y133.648 E23.99699
G1 X112.214 Y134.728 E24.08764
G1 X114.182 Y135.581 E24.17325
G1 X115.928 Y135.98 E24.24473
G1 X117.403 Y136.077 E24.30373
G1 X118.231 Y136.073 E24.33678
G1 X119.248 Y136.095 E24.37738
G1 X120.401 Y136.241 E24.42376
G1 X121.767 Y136.599 E24.48013
G1 X123.755 Y137.258 E24.56372
G1 X124.961 Y137.669 E24.61457
G1 X128.658 Y138.655 E24.76728
G0 F6000 X128.562 Y139.084
G1 F1500 E18.26728
G0 F6000 X133.662 Y139.807
G0 X138.599 Y140.199
G0 X142.077 Y140.161
G0 X145.566 Y139.782
G0 X147.335 Y139.469
G0 X148.839 Y139.036
G0 X150.918 Y138.166
G0 X152.491 Y137.186
G0 X154.062 Y135.623
G0 X155.088 Y133.682
G0 X155.54 Y131.928
G0 X155.643 Y131.034
G0 X155.615 Y129.029
G0 X154.782 Y105.457
G0 X158.111 Y99.549
G0 X158.598 Y98.383
G0 X159.056 Y96.557
G0 X159.156 Y94.786
G0 X158.704 Y92.624
G0 X157.505 Y90.44
G0 X152.303 Y82.752
G0 X152.201 Y80.96
G0 X151.85 Y79.646
G0 X151.218 Y78.471
G0 X150.525 Y77.612
G0 X149.743 Y76.83
G0 X147.946 Y75.503
G0 X145.02 Y73.851
G0 X141.799 Y72.526
G0 X139.399 Y71.823
G0 X138.322 Y71.665
G0 X133.242 Y71.11
;TYPE:WALL-INNER
G1 F1500 E24.76728
G1 F1200 X133.276 Y70.96 E24.77342
G1 X132.298 Y70.283 E24.82089
G1 X130.409 Y70.012 E24.89706
G1 X127.651 Y69.721 E25.00775
G1 X124.122 Y69.405 E25.14916
G1 X121.391 Y69.188 E25.25851
G1 X120.123 Y69.088 E25.30927
G1 X118.065 Y68.944 E25.39161
G1 X115.96 Y68.795 E25.47584
G1 X115.343 Y68.758 E25.50051
G1 X115.96 Y68.759 E25.50162
G1 X118.077 Y68.766 E25.52442
G1 X120.125 Y68.78 E25.5741
G1 X121.397 Y68.789 E25.61909
G1 X122.876 Y68.801 E25.67812
G1 X123.796 Y68.819 E25.71485
G1 X123.883 Y68.825 E25.71833
G1 X126.158 Y68.959 E25.80929
G1 X132.947 Y69.763 E26.08214
G1 X136.579 Y70.561 E26.23056
G1 X137.585 Y70.781 E26.27166
G1 X138.413 Y70.963 E26.3055
G1 X139.543 Y71.212 E26.35168
G1 X140.491 Y71.421 E26.39043
G1 X141.888 Y71.967 E26.45029
G1 X140.454 Y71.548 E26.46009
G1 X139.529 Y71.277 E26.46953
G1 X138.389 Y71.077 E26.48008
G1 X137.541 Y70.984 E26.49396
G1 X136.511 Y70.953 E26.52523
G1 X136.288 Y70.946 E26.53414
G1 X134.756 Y71.002 E26.59532
G1 X133.287 Y71.106 E26.6541
G1 X133.242 Y71.11
G0 F6000 X136.453 Y70.745
G0 X133.019 Y69.369
G1 F1200 X140.609 Y71.037 E26.96426
G1 X146.833 Y73.47 E27.23098
G1 X150.671 Y75.749 E27.40913
G1 X151.928 Y76.78 E27.47402
G1 X152.248 Y77.072 E27.49131
G1 X152.463 Y77.355 E27.5055
G1 X152.558 Y77.642 E27.51756
G1 X152.584 Y77.938 E27.52942
G1 X152.587 Y77.961 E27.53035
G1 X152.587 Y78.46 E27.55026
G1 X152.721 Y79.521 E27.59295
G1 X153.067 Y81.04 E27.65513
G1 X153.568 Y82.492 E27.71643
G1 X154.001 Y83.416 E27.75716
G1 X154.304 Y83.875 E27.77911
G1 X154.662 Y84.32 E27.8019
G1 X155.335 Y85.095 E27.84287
G1 X156.142 Y85.971 E27.89041
G1 X156.996 Y86.851 E27.93935
G1 X157.361 Y87.203 E27.95959
G1 X158.424 Y88.336 E28.0216
G1 X159.335 Y89.58 E28.08314
G1 X159.906 Y90.838 E28.13828
G1 X160.202 Y91.962 E28.18467
G1 X160.362 Y92.854 E28.22084
G1 X160.363 Y92.881 E28.22192
G1 X160.457 Y94.366 E28.28131
G1 X160.46 Y94.406 E28.28291
G1 X160.176 Y96.493 E28.36697
G1 X159.298 Y99.075 E28.47582
G1 X158.127 Y101.696 E28.59039
G1 X157.351 Y103.288 E28.66108
G1 X156.383 Y105.51 E28.75782
G1 X155.616 Y108.015 E28.86238
G1 X155.297 Y110.575 E28.96534
G1 X155.284 Y112.903 E29.05826
G1 X155.335 Y114.183 E29.10939
G1 X155.571 Y117.303 E29.23427
G1 X155.927 Y120.414 E29.35925
G1 X156.009 Y120.917 E29.37959
G1 X156.15 Y121.843 E29.41697
G1 X156.528 Y124.658 E29.53033
G1 X156.841 Y127.75 E29.65437
G1 X156.932 Y130.272 E29.7551
G1 X156.793 Y132.299 E29.83619
G1 X156.421 Y133.932 E29.90304
G1 X155.81 Y135.301 E29.96287
G1 X154.935 Y136.523 E30.02286
G1 X154.069 Y137.434 E30.07302
G1 X153.222 Y138.199 E30.11858
G1 X151.353 Y139.454 E30.20843
G1 X148.471 Y140.69 E30.33359
G1 X148.429 Y140.698 E30.33529
G1 X145.078 Y141.407 E30.472
G1 X145.048 Y141.414 E30.47323
G1 X141.986 Y141.653 E30.59581
G1 X140.576 Y141.653 E30.65209
G1 X139.394 Y141.63 E30.69927
G1 X137.817 Y141.553 E30.76229
G1 X136.181 Y141.412 E30.82783
G1 X134.387 Y141.196 E30.89995
G1 X132.323 Y140.886 E30.98325
G1 X129.935 Y140.48 E31.07993
G1 X127.1 Y139.956 E31.195
G1 X122.821 Y139.125 E31.36897
G1 X120.018 Y138.541 E31.48325
G1 X117.156 Y137.894 E31.60036
G1 X115.032 Y137.335 E31.68802
G1 X113.914 Y136.987 E31.73475
G1 X113.145 Y136.688 E31.76768
G1 X111.951 Y136.148 E31.81999
G1 X109.347 Y134.931 E31.93471
G1 X106.079 Y133.361 E32.07941
G1 X102.465 Y131.596 E32.23994
G1 X98.812 Y129.789 E32.4026
G1 X95.439 Y128.092 E32.5533
G1 X92.649 Y126.654 E32.67858
G1 X91.229 Y125.902 E32.74271
G1 X89.885 Y125.136 E32.80445
G1 X87.316 Y123.458 E32.92692
G1 X84.378 Y121.168 E33.07559
G1 X82.124 Y118.911 E33.2029
G1 X80.989 Y117.403 E33.27824
G1 X80.668 Y116.761 E33.30688
G1 X80.276 Y115.829 E33.34724
G1 X79.8 Y114.53 E33.40245
G1 X79.649 Y114.062 E33.42208
G1 X79.078 Y112.627 E33.48372
G1 X78.111 Y110.928 E33.56175
G1 X76.679 Y109.104 E33.6543
G1 X75.081 Y107.349 E33.74904
G1 X73.947 Y106.169 E33.81435
G1 X72.238 Y104.287 E33.91582
G1 X70.831 Y102.405 E34.0096
